svg/copy.svg

<svg width="24" height="24" viewBox="0 0 24 24" fill="none" xmlns="http://www.w3.org/2000/svg">
<path d="M2 4C2 2.89543 2.89543 2 4 2H14C15.1046 2 16 2.89543 16 4V8H20C21.1046 8 22 8.89543 22 10V20C22 21.1046 21.1046 22 20 22H10C8.89543 22 8 21.1046 8 20V16H4C2.89543 16 2 15.1046 2 14V4ZM10 16V20H20V10H16V14C16 15.1046 15.1046 16 14 16H10ZM14 14V4L4 4V14H14Z" fill="#0D0D0D"/>
</svg>

<svg width="24" height="24" fill="none" xmlns="http://www.w3.org/2000/svg"><path d="M2 4a2 2 0 012-2h10a2 2 0 012 2v4h4a2 2 0 012 2v10a2 2 0 01-2 2H10a2 2 0 01-2-2v-4H4a2 2 0 01-2-2V4zm8 12v4h10V10h-4v4a2 2 0 01-2 2h-4zm4-2V4H4v10h10z" fill="#0D0D0D"/></svg>
